img/logo.svg

<?xml version="1.0" encoding="UTF-8"?>
<svg width="162px" height="30px" viewBox="0 0 162 30" version="1.1" xmlns="http://www.w3.org/2000/svg" xmlns:xlink="http://www.w3.org/1999/xlink">
    <!-- Generator: Sketch 40.3 (33839) - http://www.bohemiancoding.com/sketch -->
    <title>logo</title>
    <desc>Created with Sketch.</desc>
    <defs></defs>
    <g id="Symbols" stroke="none" stroke-width="1" fill="none" fill-rule="evenodd">
        <g id="logo">
            <path d="M51.98,9.24 L52.388,6.84 L52.148,6.6 L41.3,6.6 L41.06,6.84 L38.18,23.16 L38.42,23.4 L41.348,23.4 L41.588,23.16 L42.74,16.68 L42.98,16.44 L50.012,16.44 L50.252,16.2 L50.684,13.8 L50.444,13.56 L43.58,13.56 L43.34,13.32 L43.964,9.72 L44.204,9.48 L51.74,9.48 L51.98,9.24 Z M53.684,11.64 L52.46,18.6 C52.364,19.08 52.34,19.488 52.34,19.848 C52.34,22.104 53.66,23.64 56.396,23.64 C58.316,23.64 59.228,22.44 59.228,22.44 L59.468,22.44 L59.564,23.16 L59.78,23.4 L62.42,23.4 L62.684,23.16 L64.724,11.64 L64.484,11.4 L61.604,11.4 L61.364,11.64 L60.26,17.88 C59.972,19.56 59.06,20.76 57.38,20.76 C56.204,20.76 55.796,20.112 55.796,19.248 C55.796,19.032 55.82,18.84 55.868,18.6 L57.092,11.64 L56.852,11.4 L53.924,11.4 L53.684,11.64 Z M75.14,14.04 L75.572,11.64 L75.332,11.4 L73.652,11.4 C71.732,11.4 71.132,12.36 71.132,12.36 L70.892,12.36 L70.772,11.64 L70.532,11.4 L67.844,11.4 L67.604,11.64 L65.564,23.16 L65.78,23.4 L68.708,23.4 L68.972,23.16 L70.004,17.4 C70.412,15.144 71.276,14.28 73.196,14.28 L74.9,14.28 L75.14,14.04 Z M86.732,23.16 L87.956,16.2 C88.028,15.792 88.052,15.432 88.052,15.072 C88.052,12.84 86.564,11.16 84.092,11.16 C82.412,11.16 81.524,11.808 80.972,12.36 L80.732,12.36 L80.612,11.64 L80.372,11.4 L77.684,11.4 L77.444,11.64 L75.404,23.16 L75.644,23.4 L78.572,23.4 L78.812,23.16 L79.868,17.16 C80.252,15 81.356,14.04 83.036,14.04 C84.212,14.04 84.62,14.664 84.62,15.552 C84.62,15.744 84.596,15.984 84.548,16.2 L83.324,23.16 L83.564,23.4 L86.492,23.4 L86.732,23.16 Z M101.18,17.4 C101.252,16.92 101.3,16.464 101.3,16.128 C101.3,13.416 99.524,11.16 95.996,11.16 C91.676,11.16 89.54,14.616 89.54,18.336 C89.54,21.048 91.1,23.64 95.06,23.64 C98.66,23.64 99.764,21.48 100.244,20.04 L100.004,19.8 L96.932,19.8 L96.692,20.04 C96.38,20.52 95.78,20.76 95.06,20.76 C93.356,20.76 92.972,19.632 92.972,19.032 C92.972,18.96 92.996,18.888 92.996,18.84 L93.236,18.6 L100.772,18.6 L101.012,18.36 L101.18,17.4 Z M97.532,16.2 L93.692,16.2 L93.5,15.96 C93.548,15.72 94.076,14.04 95.996,14.04 C97.628,14.04 97.844,15.216 97.844,15.744 C97.844,15.864 97.82,15.96 97.82,15.96 L97.532,16.2 Z M113.612,23.16 L115.652,11.64 L115.412,11.4 L112.724,11.4 L112.484,11.64 L112.076,12.432 L111.836,12.432 C111.836,12.432 111.116,11.16 108.956,11.16 C104.756,11.16 102.428,14.904 102.428,18.48 C102.428,21.312 104.492,23.64 107.372,23.64 C108.908,23.64 109.724,22.92 110.108,22.536 L110.348,22.536 L110.444,23.16 L110.684,23.4 L113.372,23.4 L113.612,23.16 Z M109.172,14.04 C110.732,14.04 111.332,14.976 111.332,16.344 C111.332,18.576 110.228,20.76 107.996,20.76 C106.46,20.76 105.836,19.824 105.836,18.48 C105.836,16.272 106.892,14.04 109.172,14.04 L109.172,14.04 Z M118.244,11.64 L117.02,18.6 C116.924,19.08 116.9,19.488 116.9,19.848 C116.9,22.104 118.22,23.64 120.956,23.64 C122.876,23.64 123.788,22.44 123.788,22.44 L124.028,22.44 L124.124,23.16 L124.34,23.4 L126.98,23.4 L127.244,23.16 L129.284,11.64 L129.044,11.4 L126.164,11.4 L125.924,11.64 L124.82,17.88 C124.532,19.56 123.62,20.76 121.94,20.76 C120.764,20.76 120.356,20.112 120.356,19.248 C120.356,19.032 120.38,18.84 120.428,18.6 L121.652,11.64 L121.412,11.4 L118.484,11.4 L118.244,11.64 Z M135.788,19.632 L138.428,23.16 L138.908,23.4 L139.988,23.4 L140.228,23.16 L140.66,20.76 L137.996,17.544 L137.996,17.304 L141.596,14.04 L142.028,11.64 L141.788,11.4 L139.988,11.4 L139.508,11.64 L136.172,14.904 L135.932,14.904 L133.508,11.64 L133.028,11.4 L131.948,11.4 L131.708,11.64 L131.276,14.04 L133.748,17.016 L133.724,17.256 L129.86,20.76 L129.428,23.16 L129.668,23.4 L131.468,23.4 L131.948,23.16 L135.548,19.632 L135.788,19.632 Z M149.276,10.2 L149.852,6.84 L149.612,6.6 L146.204,6.6 L145.964,6.84 L145.412,9.96 L145.652,10.2 L146.132,10.2 L146.372,10.44 L146.324,10.68 L144.452,13.08 L144.38,13.56 L146.06,13.56 L146.54,13.32 L148.892,10.92 L149.276,10.2 Z M160.58,19.608 C160.58,17.136 158.348,16.416 157.052,16.2 C155.732,15.984 154.388,15.96 154.388,15.12 C154.388,14.136 155.516,14.04 156.236,14.04 C157.34,14.04 157.796,14.256 157.796,14.592 C157.796,14.688 157.772,14.76 157.772,14.76 L158.012,15 L160.94,15 L161.18,14.76 C161.204,14.664 161.228,14.544 161.228,14.352 C161.228,12.384 159.092,11.16 156.236,11.16 C153.644,11.16 150.98,12.384 150.98,15.144 C150.98,17.808 153.668,18.384 154.964,18.6 C156.26,18.816 157.172,18.84 157.172,19.608 C157.172,20.688 155.756,20.76 155.06,20.76 C153.98,20.76 153.332,20.568 153.332,19.824 C153.332,19.728 153.332,19.656 153.356,19.56 L153.116,19.32 L150.212,19.32 L149.972,19.56 C149.924,19.752 149.924,19.92 149.924,20.04 C149.924,22.032 151.82,23.64 155.06,23.64 C157.748,23.64 160.58,22.608 160.58,19.608 L160.58,19.608 Z" id="Furneaux’s" fill="#47353A"></path>
            <path d="M6.80602664,27.5662517 C2.70799535,24.8886269 0,20.2605566 0,15 C0,6.71572875 6.71572875,8.8817842e-16 15,8.8817842e-16 C23.2842712,8.8817842e-16 30,6.71572875 30,15 C30,23.2842712 23.2842712,30 15,30 C13.9168131,30 12.8604422,29.8851869 11.8423931,29.6670666 C12.5761242,26.6090581 13.367563,22.9920827 14.2167125,18.8161279 L18.3646969,18.8161279 L18.7907061,16.9102973 L14.5306141,16.9102973 L15.3826325,13.6591744 C15.9655953,11.4170095 16.597129,9.71298969 17.2772524,8.54706393 C17.9573757,7.38113817 18.7159635,6.79818404 19.5530384,6.79818404 C19.8519937,6.79818404 20.0612593,6.87292175 20.1808414,7.02239941 C20.2854758,7.18682483 20.3377922,7.32135271 20.3377922,7.42598707 C20.3377922,7.50072591 20.2144749,7.75109723 19.9678368,8.17710857 C19.7211987,8.6031199 19.5978814,9.01791419 19.5978814,9.42150387 C19.5978814,10.0044668 19.8220946,10.5126832 20.2705276,10.9461684 C20.7189605,11.3796536 21.2495983,11.596393 21.8624567,11.596393 C22.4902629,11.596393 23.0321113,11.3759167 23.4880181,10.9349576 C23.943925,10.4939985 24.171875,9.90730751 24.171875,9.17486697 C24.171875,7.93420238 23.7271856,6.99998101 22.8377935,6.37217483 C21.9484015,5.74436866 20.8086514,5.43047028 19.4185091,5.43047028 C17.6845683,5.43047028 15.995496,6.14047852 14.3512418,7.5605163 C12.990995,8.75633759 11.8736663,10.3295664 10.999222,12.2802499 C10.1247777,14.2309333 9.55303418,15.774267 9.28397439,16.9102973 L5.92074383,16.9102973 L5.49473462,18.8161279 L8.85796518,18.8161279 L6.97455607,26.7757736 C6.91779581,27.0424567 6.86161933,27.3059494 6.80602664,27.5662517 Z" id="Combined-Shape" fill="#EEAE9F"></path>
        </g>
    </g>
</svg>

<svg width="162" height="30" xmlns="http://www.w3.org/2000/svg"><g fill="none" fill-rule="evenodd"><path d="M51.98 9.24l.408-2.4-.24-.24H41.3l-.24.24-2.88 16.32.24.24h2.928l.24-.24 1.152-6.48.24-.24h7.032l.24-.24.432-2.4-.24-.24H43.58l-.24-.24.624-3.6.24-.24h7.536l.24-.24zm1.704 2.4L52.46 18.6c-.096.48-.12.888-.12 1.248 0 2.256 1.32 3.792 4.056 3.792 1.92 0 2.832-1.2 2.832-1.2h.24l.096.72.216.24h2.64l.264-.24 2.04-11.52-.24-.24h-2.88l-.24.24-1.104 6.24c-.288 1.68-1.2 2.88-2.88 2.88-1.176 0-1.584-.648-1.584-1.512 0-.216.024-.408.072-.648l1.224-6.96-.24-.24h-2.928l-.24.24zm21.456 2.4l.432-2.4-.24-.24h-1.68c-1.92 0-2.52.96-2.52.96h-.24l-.12-.72-.24-.24h-2.688l-.24.24-2.04 11.52.216.24h2.928l.264-.24 1.032-5.76c.408-2.256 1.272-3.12 3.192-3.12H74.9l.24-.24zm11.592 9.12l1.224-6.96c.072-.408.096-.768.096-1.128 0-2.232-1.488-3.912-3.96-3.912-1.68 0-2.568.648-3.12 1.2h-.24l-.12-.72-.24-.24h-2.688l-.24.24-2.04 11.52.24.24h2.928l.24-.24 1.056-6c.384-2.16 1.488-3.12 3.168-3.12 1.176 0 1.584.624 1.584 1.512 0 .192-.024.432-.072.648l-1.224 6.96.24.24h2.928l.24-.24zm14.448-5.76c.072-.48.12-.936.12-1.272 0-2.712-1.776-4.968-5.304-4.968-4.32 0-6.456 3.456-6.456 7.176 0 2.712 1.56 5.304 5.52 5.304 3.6 0 4.704-2.16 5.184-3.6l-.24-.24h-3.072l-.24.24c-.312.48-.912.72-1.632.72-1.704 0-2.088-1.128-2.088-1.728 0-.072.024-.144.024-.192l.24-.24h7.536l.24-.24.168-.96zm-3.648-1.2h-3.84l-.192-.24c.048-.24.576-1.92 2.496-1.92 1.632 0 1.848 1.176 1.848 1.704a.99.99 0 01-.024.216l-.288.24zm16.08 6.96l2.04-11.52-.24-.24h-2.688l-.24.24-.408.792h-.24s-.72-1.272-2.88-1.272c-4.2 0-6.528 3.744-6.528 7.32 0 2.832 2.064 5.16 4.944 5.16 1.536 0 2.352-.72 2.736-1.104h.24l.096.624.24.24h2.688l.24-.24zm-4.44-9.12c1.56 0 2.16.936 2.16 2.304 0 2.232-1.104 4.416-3.336 4.416-1.536 0-2.16-.936-2.16-2.28 0-2.208 1.056-4.44 3.336-4.44zm9.072-2.4l-1.224 6.96c-.096.48-.12.888-.12 1.248 0 2.256 1.32 3.792 4.056 3.792 1.92 0 2.832-1.2 2.832-1.2h.24l.096.72.216.24h2.64l.264-.24 2.04-11.52-.24-.24h-2.88l-.24.24-1.104 6.24c-.288 1.68-1.2 2.88-2.88 2.88-1.176 0-1.584-.648-1.584-1.512 0-.216.024-.408.072-.648l1.224-6.96-.24-.24h-2.928l-.24.24zm17.544 7.992l2.64 3.528.48.24h1.08l.24-.24.432-2.4-2.664-3.216v-.24l3.6-3.264.432-2.4-.24-.24h-1.8l-.48.24-3.336 3.264h-.24l-2.424-3.264-.48-.24h-1.08l-.24.24-.432 2.4 2.472 2.976-.024.24-3.864 3.504-.432 2.4.24.24h1.8l.48-.24 3.6-3.528h.24zm13.488-9.432l.576-3.36-.24-.24h-3.408l-.24.24-.552 3.12.24.24h.48l.24.24-.048.24-1.872 2.4-.072.48h1.68l.48-.24 2.352-2.4.384-.72zm11.304 9.408c0-2.472-2.232-3.192-3.528-3.408-1.32-.216-2.664-.24-2.664-1.08 0-.984 1.128-1.08 1.848-1.08 1.104 0 1.56.216 1.56.552a.586.586 0 01-.024.168l.24.24h2.928l.24-.24c.024-.096.048-.216.048-.408 0-1.968-2.136-3.192-4.992-3.192-2.592 0-5.256 1.224-5.256 3.984 0 2.664 2.688 3.24 3.984 3.456 1.296.216 2.208.24 2.208 1.008 0 1.08-1.416 1.152-2.112 1.152-1.08 0-1.728-.192-1.728-.936 0-.096 0-.168.024-.264l-.24-.24h-2.904l-.24.24c-.048.192-.048.36-.048.48 0 1.992 1.896 3.6 5.136 3.6 2.688 0 5.52-1.032 5.52-4.032z" fill="#47353A"/><path d="M6.806 27.566A14.984 14.984 0 010 15C0 6.716 6.716 0 15 0c8.284 0 15 6.716 15 15 0 8.284-6.716 15-15 15a15.06 15.06 0 01-3.158-.333c.734-3.058 1.526-6.675 2.375-10.85h4.148l.426-1.907h-4.26l.852-3.25c.583-2.243 1.214-3.947 1.894-5.113.68-1.166 1.439-1.749 2.276-1.749.299 0 .508.075.628.224.104.165.157.3.157.404 0 .075-.124.325-.37.751-.247.426-.37.84-.37 1.245 0 .582.224 1.09.673 1.524.448.434.979.65 1.591.65.628 0 1.17-.22 1.626-.661.456-.441.684-1.028.684-1.76 0-1.24-.445-2.175-1.334-2.803-.89-.628-2.03-.942-3.42-.942-1.733 0-3.423.71-5.067 2.13-1.36 1.196-2.477 2.77-3.352 4.72-.874 1.95-1.446 3.494-1.715 4.63H5.921l-.426 1.906h3.363l-1.883 7.96-.169.79z" fill="#EEAE9F"/></g></svg>
